X: 13443
T: Flooded Meadow, The
R: reel
M: 4/4
K: Bdorian
B2 B/B/B ABcB-|B F2 A- AB B/B/A|B2 B/B/B dcAf-|feef ABBF|
[1AB B/B/B ABcB-|B F2 A- AB B/B/A|B2 B/B/B dcAB-|Bffa eeec:|
[2AB B/B/B ABdc-|c F2 A- AB B/B/A|B2 B/B/B dcAB-|Bffa eeec||
|:e2 e/e/e ecee-|effA ABBc|e2 e/e/e eccB|cefa f2ec|
[1e2 e/e/e ecee-|effA ABBc|e2 e/e/e fecB|cefa f2ec:|
[2e2 e/e/e ecee-|effA ABBc|e2 e/e/e ecef-|feec ABAF||

